X:137
T:Green Groves of Erin
Z: id:dc-reel-126
M:C
L:1/8
K:A Dorian
A2cA eAcA|G2Bd gdBG|A2cA eAcA|BEEF GABc|!
A2cA eAcA|G2Bd gdBG|A2cA eAcA|BEEF GABc:|!
eaa2 eaa2|egg2 agfg|eaa^g a3=g|egfa gedB|!
eaa2 bgag|edef g3e|dega bgag|egfa gedB:|!

